X:1
L:1/8
Q:1/4=120
M:4/4
K:C
""E"" E3/2 F/^GA""Dm"" ^G3/2 F/EF |""E"" ^G(E E2) z2 z A | ^GA Bc""Dm"" BA ^G3/2 A/ |""E"" B(^G ^G2) z2 z B | 
""Dm"" Bc de d2 z c | d3/2 c/BA""E"" e2 z A | ^GA BA""Dm"" ^GD EF |""E"" E6 z2 ||""C"" e4 e4 | 
 e2 d<c""G"" d3 z |""Am"" e3/2 d/cB cd ec |""E"" B6 z2 |""Dm"" d4 d2 de | fe dc B z Bc | 
""B"" dc BA ^G3/2 A<^G F/ |""E"" E6 z2 |]
